X:2972
T:Chief O'Neill's Favourite
M:4/4
L:1/8
C:Trad
R:Hornpipe
K:D
de | fefg afge | fdec dcAG | FD DD DFAB cAdc| A2 de | fefg afge | fdec d
cA
G | FEFD GBAG | F2 D2 D2 :|
 |: DE | =F2 FG A2 AB | =c2 cd cBAG | Adde fded | cAdc A2 de | fefg afge
 |
fdec dcAG | FEFD GBAG | F2 D2 D2 :|


